X:167
T:Reel 167
M:4/4
K:Gmaj
L:1/8
dc|B>G (3GFG B>G (3GFG |A>G (3GFG g>G (3GFG |A>F (3FFF A>F (3AGA |c>A (3AAA e>A (3AAc |B>G (3GGG g>G (3GFG |AGFG G2BG|A>F (3FEF AFBA|GFED EF|A2|B>G (3GFG dGBG|F>F (3FEF A>F (3FEA |G>G (3GGG BGdG|cAFA DAFA|G>G (3GGG DGBG|AFFA FADA|d>B (3BAG dGBG|FDEF G2|
